X:1
T: Lady Hunter Blair's Reel
C:
R:Reel
Q: 232
K:Am
M:4/4
L:1/8
|:a|e2 AA e2 ea|g2 eg dG BG|e2 AA e2 eg|^fd gB A2 Aa|
e2 AA e2 ea|g2 eg dG BG|e2 AA e2 eg|^fd gB A2 Ac|
A2 EE AB cA|GA Bc de dB|A2 EE AB cd|e^f gB A2 Ac|
A2 EE AB cA|GA Bc de dB|ec gc dB gB|cA B^G A2 A:|
